X:1
T:Built on the Rock
T:Text: Nikolai Grundtvig, 1854; tr. Carl Doving, 1909, alt. Tune: Ludwig M. Lindeman, 1840
T:88 88 888 KIRKEN www.hymnary.org/text/built_on_the_rock_the_church_doth_stand
T:Built on the Rock
T:This hymn is in the public domain. You may freely use this score for personal and congregational worship. If you reproduce the score, please credit Hymnary.org as the source. 
T:This hymn is in the public domain. You may freely use this score for personal and congregational worship. If you reproduce the score, please credit Hymnary.org as the source. 
T:This hymn is in the public domain. You may freely use this score for personal and congregational worship. If you reproduce the score, please credit Hymnary.org as the source. 
Z:This hymn is in the public domain. You may freely use this score for personal and congregational worship. If you reproduce the score, please credit Hymnary.org as the source.
%%score ( 1 2 ) ( 3 4 )
L:1/8
M:3/4
K:Eb
V:1 treble nm="SOPRANO ALTO" snm="S. A."
V:2 treble 
V:3 bass nm="TENOR BASS" snm="T. B."
V:4 bass 
V:1
"^1""^2""^3" C2 C2 G2 | E4 C2 | E4 F2 | G6 | G2 =A2 B2 | G2 E2 F2 | D6 | C6 | C2 C2 G2 | E4 C2 |1 %10
w: Built on the|Rock, the|church shall|stand|e- ven when|stee- ples are|fall-|ing;|Christ builds his|church in|
w: Not in a|tem- ple|made with|hands|God the Al-|might- y is|dwell-|ing;|high in the|heavens his|
w: We are God's|house of|liv- ing|stones,|built for his|own hab- i-|ta-|tion;|he fills our|hearts, his|
 E4 F2 | G6 | G2 =A2 B2 | G2 E2 F2 | D6 | C6 ||"^Page 2" c2 B2 =A2 | B4 G2 | G4 F2 | E6 | %20
w: ev- ery|land;|bells still are|chim- ing and|call-|ing,|call- ing the|young and|old to|rest,|
w: tem- ple|stands,|all earth- ly|tem- ples ex-|cel-|ling.|Yet he who|dwells in|heaven a-|bove|
w: hum- ble|thrones,|grant- ing us|life and sal-|va-|tion.|Yet to this|place, an|earth- ly|frame,|
 G2 c2 e2 |"^Built on the Rock" d4 c2 | B4 =A2 | G6 | G2 G2 F2 | E2 F2 E2 | D6 | C6 | z6 |] %29
w: call- ing the|souls of|those dis-|tressed,|long- ing for|life ev- er-|last-|ing.||
w: choos- es to|live with|us in|love,|mak- ing our|bod- ies his|tem-|ple.||
w: we come with|thanks to|praise his|name;|God grants *|peo- ple true|bless-|ing.||
V:2
 C2 C2 D2 | C4 C2 | C4 C2 | =B,6 | C2 C2 B,2 | B,2 C2 C2 | (C2 =B,4) | C6 | C2 C2 D2 | C4 C2 |1 %10
 C4 C2 | =B,6 | C2 C2 B,2 | B,2 C2 C2 | (C2 =B,4) | x6 || E2 D2 D2 | D4 E2 | E4 D2 | x6 | %20
 E2 G2 G2 | G4 =A2 | G4 ^F2 | x6 | D2 C2 =B,2 | C2 C2 C2 | (C2 =B,4) | x6 | x6 |] %29
V:3
 E,2 E,2 G,2 | G,4 G,2 | A,4 F,2 | D,6 | E,2 F,2 F,2 | E,2 G,2 A,2 | (G,4 F,2) | E,6 | %8
 E,2 E,2 G,2 | G,4 G,2 |1 A,4 F,2 | D,6 | E,2 F,2 F,2 | E,2 G,2 A,2 | (G,4 F,2) | E,6 || %16
 G,2 G,2 ^F,2 | G,4 B,2 | B,4 B,2 | G,6 | C2 C2 C2 | D4 E2 | D4 D2 | B,6 | =B,2 C2 G,2 | %25
 G,2 F,2 G,2 | (A,2 G,2 F,2) | E,6 | x6 |] %29
V:4
 C,2 C,2 =B,,2 | C,4 B,,2 | A,,4 A,,2 | G,,6 | C,2 F,2 D,2 | E,2 C,2 F,,2 | G,,6 | C,6 | %8
 C,2 C,2 =B,,2 | C,4 B,,2 |1 A,,4 A,,2 | G,,6 | C,2 F,2 D,2 | E,2 C,2 F,,2 | G,,6 | C,6 || %16
 C,2 D,2 D,2 | G,4 E,2 | B,,4 B,,2 | E,6 | C,2 E,2 C,2 | B,,4 C,2 | D,4 D,2 | G,6 | F,2 E,2 D,2 | %25
 C,2 A,,2 G,,2 | (F,,2 G,,4) | C,6 | x6 |] %29

